X:1
T:Haste Away
T:Haste Away
T:Onie Lee Francis
T:Onie Lee Francis, 1918
T:Public Domain Courtesy of the Cyber Hymnal™
T:Public Domain Courtesy of the Cyber Hymnal™
T:Public Domain Courtesy of the Cyber Hymnal™
C:Onie Lee Francis
Z:Public Domain
Z:Courtesy of the Cyber Hymnal™
%%score ( 1 2 ) ( 3 4 )
L:1/8
Q:1/4=97
M:4/4
K:Db
V:1 treble 
V:2 treble 
V:3 bass 
V:4 bass 
V:1
 [DF]2 [DF]2 [DF][CE]DD | [Fd]2 d2 [Fd]4 | [EG]2 [EG]2 [EG][DF][CE][CE] | [Ge]2 [Ge]2 [Ge]4 | %4
w: 1.~Rouse, oh! reap- ers, up and|haste a- way,|Rea- dy, will- ing, Je- sus|to o- bey;|
w: 2.~Time is pre- cious, do not|i- dle stand,|Haste a- way with will- ing|heart and hand;|
w: 3.~Haste, oh! reap- ers, ere the|day- light flies,|Glean some sheaves e- ter- nal|for the skies.|
 [Fd]2 [Fd]2 (d/A/)[FA] (B/A/)[DF] | [FA]2 ([FB]<[DF]) [FA]4 | [Fd]2 [Fd]2 (d/A/)[FA] (B/A/)A | %7
w: You are need- * ed, see * the|fields are * white;|Take your sic- * kle, reap * with|
w: Christ in mer- * cy will * al-|ways be * near,|You to strength- * en, com- * fort,|
w: Let not Christ * for reap- * ers|call in * vain,|And in world- * ly i- * dle-|
 [Gc]2 [Gc]2 [Gc]4 | [Fd] [Fd]2 [Ge] [Af] [Af]2 [=Ae] | [Bd] [Bd]2 [GB] [FA]4 | %10
w: all your might;|Haste, for the reap- ers, a-|las! are so few,|
w: help and cheer;|Trust- ing and pray- ing, oh!|make no de- lay,|
w: ness re- main;|All who are faith- ful in|serv- ing the Lord,|
 [Fd] [Fd]2 [Ge] [Af] [Af]2 [Ad] | [Ae]6 z2 | [Fd] [Fd]2 [Ge] [Af] [Af]2 [=Ae] | %13
w: And in His ser- vice be|true.|Haste, for the reap- ers, a-|
w: Forth to the har- vest a-|way!|Trust- ing and pray- ing, oh!|
w: Sure- ly ob- tain their re-|ward.|All who are faith- ful in|
 [Bd] [Bd]2 [GB] A4 | [Ad] [Ad]2 [Be] [Af] [Af]2 [Ge] | d6 z2 ||"^Refrain" d2 d2 dA ([FB][DF]) | %17
w: las! are so few,|And in His ser- vice be|true.||
w: make no de- lay,|Forth to the har- vest a-|way!|Haste un- to the world- *|
w: serv- ing the Lord,|Sure- ly ob- tain their re-|ward.||
 A2 ([FB][DF]) [FA]2 z2 | d2 d2 dA[DF][FA] | c2 c2 [Gc]2 z2 | [Fd] [Fd]2 [Ge] | [Af][Fd] z2 | %22
w: |||||
w: wide har- * vest|field, Help to gar- ner in|the price- less|yield; Faith- ful-|ness show-|
w: |||||
 [GB] [GB]2 [Ac] [Bd][GB] z2 | [=Ge] [Ge]2 [Gd] [GB]2 [Ef]2 | [Ae]6 z2 | d2 d2 dA[FB][DF] | %26
w: ||||
w: ing, bless- ings be- stow-|ing, Serv- ing with trust|and|love; Fal- ter not and ne-|
w: ||||
 A2 ([FB][DF]) [FA]2 z2 | d2 d2 dA[DF][FA] | c2 c2 [Gc]2 z2 | [Fd] [Fd]2 [Ge] [Af][Af] z2 | %30
w: ||||
w: ver wea- * ry|be, Give your best un- til|e- ter- ni-|ty, Joy- ful- ly sing-|
w: ||||
 [GB] [GB]2 [Ac] [Bd][Bd] z2 | [Fd] [Fd]2 [Ge] [Af]2 [Ge]2 | d8 F4 |] %33
w: |||
w: ing, reap- ing and bring-|ing, Souls to the Lord|a- bove.|
w: |||
V:2
 x6 DD | x2 (G=E) x4 | x8 | x8 | x4 F x/ F x3/2 | x8 | x4 F x/ FA x/ | x8 | x8 | x8 | x8 | x8 | %12
 x8 | x4 (F2 G2) | x8 | (F2 =E2 F2) x2 || (FF) (FF) F2 x2 | FF x6 | (FF) (FF) F2 x2 | %19
 (GG) (GG) x4 | x4 | x4 | x8 | x8 | x8 | (FF) (FF) F2 x2 | (FF) x6 | (FF) (FF) F2 x2 | %28
 (GG) (GG) x4 | x8 | x8 | x8 | FBAG x8 |] %33
V:3
 [D,A,]2 [D,A,]2 [D,A,][D,G,][D,F,][D,F,] | [D,A,]2 (B,=G,) [D,A,]4 | %2
 [E,A,]2 [C,A,]2 [A,,A,][A,,A,][G,A,][F,A,] | C2 C2 [A,,C]4 | %4
 [D,A,]2 [D,A,]2 (A,/D/)[D,D] [D,D][D,A,] | [D,D]2 (D<A,) [D,D]4 | %6
 [D,A,]2 [D,A,]2 (A,/D/)[D,D] [D,D][F,D] | A,2 A,2 [A,,A,]4 | %8
 [D,A,] [D,A,]2 [D,A,] [D,D] [D,D]2 [F,D] | [G,D] [G,D]2 [G,D] [D,D]4 | %10
 [D,A,] [D,A,]2 [D,A,] [D,D] [D,D]2 [F,D] | C6 x2 | [D,A,] [D,A,]2 [D,A,] [D,D] [D,D]2 [F,D] | %13
 [G,D] [G,D]2 [G,D] ([D,D]2 [E,C]2) | [F,D] [F,D]2 [G,D] [A,D] [A,D]2 [A,,A,] | (A,2 B,2 A,2) z2 || %16
 (A,A,) (A,A,) [D,A,]2 [A,,D]2 | DD (DA,) D2 x2 | (A,A,) (A,A,) [D,A,]2 [A,,A,]2 | %19
 ([E,A,][D,A,]) ([C,A,][B,,A,]) A,2 x2 | [D,A,] [D,A,]2 [D,A,] | [D,D] ([D,A,]E,F,) | %22
 [G,D] [G,D]2 [G,D] [G,D] ([G,D]G,F,) | [E,B,] [E,B,]2 [E,E] [E,E]2 [E,D]2 | ([A,C]2 G,2 F,2 E,2) | %25
 (A,A,) (A,A,) [D,A,]2 [A,,D]2 | (DD) (DA,) D2 x2 | (A,A,) (A,A,) [D,A,]2 [A,,A,]2 | %28
 ([D,A,][C,A,]) ([C,A,][B,,A,]) A,2 x2 | [D,A,] [D,A,]2 [D,A,] [D,D] ([D,D]E,F,) | %30
 [G,D] [G,D]2 [G,D] [G,D] ([G,D]F,G,) | A, A,2 A, [A,,A,]2 [A,,A,]2 | (A,DCB, A,4) x4 |] %33
V:4
 x8 | x2 D,2 x4 | x8 | (E,D,) (C,B,,) x4 | x4 D, x3 | x2 D, x5 | x4 D, x3 | (E,D,) (C,B,,) x4 | %8
 x8 | x8 | x8 | (A,3 B,A,G,F,E,) | x8 | x8 | x8 | D,6 x2 || D,3 A,,2 x3 | D,2 A,,2 (D,A,,B,,C,) | %18
 D,2 A,,2 x4 | x4 (A,,A,,B,,C,) | x4 | x4 | x8 | x8 | x8 | D,2 A,,2 x4 | D,2 A,,2 (D,A,,B,,C,) | %27
 D,2 A,,2 x4 | x4 (A,,A,,B,,C,) | x8 | x8 | A, A,2 A, x4 | D,8 x4 |] %33

